X: 9302
T: Dancers Delight, The
R: reel
M: 4/4
K: Ddorian
dG G2 dGBd|dgdB AGAB|dG G2 dGBd|egdB AGED|
dG G2 dGBd|dgdB AGAB|dG G2 dGBd|egdB A2G2||
GBdf g3d|egdB AGED|GBdf g3d|egdf gedB|
GBdf g3d|egdB AGED|GBdf g2 fd|edef g3e||

